X:0551
T:"Black Mathew"     (air)     0551
C:after Mr. O'Brien
C:with spirit
Q:1/4=110
I:abc2nwc
B:O'Neill's Music Of Ireland (The 1850) Lyon & Healy, Chicago, 1903 edition
Z:FROM O'NEILL'S TO NOTEWORTHY, FROM NOTEWORTHY TO ABC, MIDI AND .TXT BY VINCE
BRENNAN June 2003 (HTTP://WWW.SOSYOURMOM.COM)
M:6/8
L:1/8
K:A
"_vb"E|E3/2^D/2E .C(D^E)|(.F.F.F) F2G|AGF GEC|.C(CB,) A,2(A,/2C/2)|
AGF ECB,|.C(.CB,) .A,2(A,/2B,/2)|CFF F2^E|CFF F2|]
